X:10
T:Blackberry Blossom
S:Bernie Waugh
R:Reel
M:4/4
L:1/8
K:G
|:ef|\
"G"gabg "D"fgaf|"C"efge "Bm"dBAG|\
"Em"EFGF EFGA|"G"BdBG "D"A2ef|
"G"gabg "D"fgaf|"C"efge "Bm"dBAG|\
"Em"EFGF EFGA|"G"[BG][B2G2][BG] [B2G2]-:|
|:[B2G2]|\
"Em"[E2B2][eB]B dB[eB]B|[E2B2][eB]B "Bm"dBAG|\
"Em"[E2B2][eB]B "D"d2ef|"G (or C7!)"gbag edBG|
"Em"[E2B2][eB]B dB[eB]B|[E2B2][eB]B "Bm"dBAG|\
"Em"[E2B2][eB]B "D"d2ed|"G"BGAFG2:|

